X: 26971
T: Miss Crawford's
R: reel
M: 4/4
K: Amajor
E2|A2GA FAEA|FAEA cefa|eAfA gAaA|BcBA AGFE|
A2GA FAEA|FAEA cefa|ecfa ecaf|ecdB A2:|
A2|agab agfe|dcde fedc|BEcE dEcE|BcBA AGFE|
agab agfe|dcde fedc|Bcde fgaf|eagb a2a2|
agab agfe|dcde fedc|BEcE dEcE|BcBA AGFE|
A2GA FAEA|FAEA cefa|ecfa ecaf|ecdB A2||

